icons/spectrum-line.svg

<svg viewBox="0 0 24 24" fill="currentColor" xmlns="http://www.w3.org/2000/svg"><path d="M11.3885 2.00146L13.1997 2.00596L14.0434 2.0199C21.2046 2.18454 21.982 3.53205 22.0003 11.6871L21.9948 13.1991L21.9808 14.0429C21.8162 21.204 20.4687 21.9814 12.3136 21.9997L10.8016 21.9942L9.91389 21.9792C3.06016 21.8164 2.08615 20.5515 2.00651 13.1991L2.00098 11.6908L2.00651 10.801L2.02094 9.9364C2.18566 2.88296 3.50725 2.03889 11.3885 2.00146ZM14.1204 4.00883L10.8829 4.00079L9.561 4.01053C4.07209 4.09335 4.01663 4.83194 4.0016 11.414L4.00259 13.5888L4.0132 14.6296C4.10138 19.6115 4.80564 19.9723 10.4119 19.9981L13.8667 19.9965L14.6429 19.9873C19.7508 19.8957 19.9894 19.1505 20.0002 13.1103L19.998 10.3675L19.9859 9.31193C19.892 4.51568 19.201 4.06256 14.1204 4.00883ZM8.25064 7.00009C13.0831 7.00009 17.0006 10.9176 17.0006 15.7501V16.3334C17.0006 16.7018 16.7021 17.0001 16.334 17.0001H12.6673C12.2992 17.0001 12.0006 16.7018 12.0006 16.3334V15.7501C12.0006 13.679 10.3217 12.0001 8.25064 12.0001H7.66731C7.29918 12.0001 7.00064 11.7018 7.00064 11.3334V7.66675C7.00064 7.29863 7.29918 7.00009 7.66731 7.00009H8.25064Z"/></svg>

<svg xmlns="http://www.w3.org/2000/svg" viewBox="0 0 24 24">
    <g>
        <path fill="none" d="M0 0h24v24H0z"/>
        <path fill-rule="nonzero" d="M11.388 2.001l1.811.005.844.014c7.161.164 7.938 1.512 7.957 9.667l-.006 1.512-.014.844c-.164 7.161-1.512 7.938-9.667 7.957l-1.512-.006-.888-.015c-6.853-.163-7.827-1.428-7.907-8.78L2 11.691l.006-.89.014-.865c.165-7.053 1.487-7.897 9.368-7.935zM14.12 4.01L10.882 4l-1.322.01c-5.489.082-5.544.82-5.559 7.403l.001 2.175.01 1.04c.089 4.982.793 5.343 6.4 5.369l3.454-.002.776-.009c5.108-.091 5.347-.837 5.358-6.877l-.003-2.743-.012-1.055c-.094-4.796-.785-5.25-5.865-5.303zM8.25 7A8.75 8.75 0 0 1 17 15.75v.583a.667.667 0 0 1-.667.667h-3.666a.667.667 0 0 1-.667-.667v-.583A3.75 3.75 0 0 0 8.25 12h-.583A.667.667 0 0 1 7 11.333V7.667C7 7.299 7.299 7 7.667 7h.583z"/>
    </g>
</svg>
